!!!OTL: Die Freudenlose (91a), S. 236
!!!id: T0249
**kern
*clefG2
*k[b-e-]
*B-:
{4b-
=1
8a
8g
4f
4g
=2
8f
8e-
8d}
=3
{8f
8b-
8cc
=4
4dd
4dd
8cc
8cc
=5
4b-}
8r
=6
{8b-
8a
8b-
=7
8.cc
16dd
8cc
16f
16f
8b-
8cc
=8
8.dd
16ee-
8dd}
8r
=9
{8b-
8dd
=10
4ff
4ff
8ee-
8ee-
=11
4dd}
4r
==
*-
!!!minrhy: 16
!!!meters: 3/4 ]  ZZ[4
!!!cut: Die Freudenlose (91a), S. 236
!!!reg: Luxemburg
!!!trd: Singendes Volk, Esch-Alzette 1937 posth.
!!!rhy1: X__  X_X_X__X__  X_X_X_   (x2)
!!!rhy2: X_X_X_  X__X__X_X_  X__0
!!!key: T0249  16 Bb 3/4 ]  ZZ[4
!!!mod: HEPTATONIK IONISCH]  AMBITUS[10b
!!!kad: -3133
!!!akz: -7-5_31_23_53_
!!!fot: 'a__as"as"as"
!!!for: 'a__b__c__bv_
!!!fok: '\__^a_~a_^a_
!! PHRAS[AUFTAKTIG]
!!!fkt: Liebeslieder
!!!bem1: Reuland, hhh Johann Frank, 1906;
!!!bem2: (91b)- StraPen, fff Witry, 17.3.1933
!! THILL, Mathias:
!! PR[5] 2K[2] 2G[21] 3K[12] 3G[5] 4A[7] 4Ü[0] 5A[0] 6K[0] 6G[0]
!! 7K[0] 7G[0] 8A[0] MEHR[0] SI[48] ABS[42] SR[24] SP[24]
!! ST[13] 2k[5] 2g[26] 3k[12] 3g[2] 4d[2] 4ü[0] 5d[0] 6k[0] 6g[0]
!! 7k[0] 7g[0] 8d[0] mehr[0] si[48] dm[0] sr[31] sp[17]
!! 1F[35] 2F[63] 3F[2] 4F[0] LF[0] 2P[0] 3P[0] 4P[0] TRI[0] DF[3] AB[46]
!! TF[0] U3K[0] U3[0] U4[0] U4Ü[0] U5[5] U6K[0] U6[0] U7K[0] U7[0]
!! N1[9] N2K[0] N2[9] N3K[0] N3[28] N4[14] N4Ü[0] N5[26] N6K[0] N6[9]
!!!n7k: 0] N7[0] O1[0] O2K[0] O2[0] O3K[0] O3[0] HÖ[0
